X: 10951
Q: "Allegretto"
M: 2/4
L: 1/8
K: D
f>gfe | eddB | AFdF | {F}E2A>G |\
f>d e>c | d2d>c | B2B2 | BAFA |\
d2DF | A2A2 | B>cdB | A>F D |]


